X: 10962
T: Drummuir Castle
R: strathspey
M: 4/4
K: Amixolydian
{f}e2 d/c/B/A/ ce a2|{f}!trill!g2 d/f/g/d/ {d}B(G G).f|
{f}e2 d/c/B/A/ ce a>f|1 {f}gG B/c/d/B/ {B}e(AA) z:|2 {f}gG B/c/d/B/ {B}e(AA) e||
|:a2 g/f/e/d/ eA a2|{f}g2 e/f/g/d/ B(GG)g|
a2 g/f/e/d/ .e.A a3/2f/|1 {f}gG B/c/d/B/ {B}e(AA)e:|2 {f}gG B/c/d/B/ {B}e(AA) z||

